X: 16175
T: Green Mountain, The
R: reel
M: 4/4
K: Dmajor
dB|A~F3 EGFE|D~F3 ABde|f~d3 efdB|Adfd efdB|
A~F3 EGFE|DEFG ABde|f~d3 efdB|1 AFEF D3 B:|AFEF D3 e||
f~a3 bfaf|defd e2 de|f~B3 ABde|fgfe dBBe|
f~a3 bfaf|defd efde|f~d3 efdB|1 AFEF D3 e:|AFEF D2 dB||

